X: 1
T:The Rakes of Kildare
C:Trad
R:Jig
M:6/8
K:ADor
Z:From my accordion teacher Davy O'Shannon.
L:1/8
E|EAA AGA|Bcd e2f|gfg ege|dBA BAG|EAA AGA|Bcd e2f|gfg edB|A3 A2:|
|a3 aea|aea b2a|gfg ege|dBA G3|a3 aea|aea b2a|gfe dcB|A3 A2g|
aea aea|aea b2a|gfg ege|dBA BAG|EAA AGA|Bcd e2f|gfg edB|A3 A3||
